Reedweeks/img/like.svg

<svg width="24" height="24" viewBox="0 0 24 24" fill="none" xmlns="http://www.w3.org/2000/svg">
<path d="M16.2397 7.05298C17.3051 7.39328 18.062 8.34968 18.1566 9.47496" stroke="#3B3943" stroke-width="1.5" stroke-linecap="round" stroke-linejoin="round"/>
<path fill-rule="evenodd" clip-rule="evenodd" d="M11.7479 20.8538C9.46309 19.5179 7.33752 17.9456 5.40929 16.1652C4.05366 14.8829 3.02162 13.3198 2.39225 11.5954C1.25966 8.25031 2.58259 4.42083 6.2849 3.28752C8.23068 2.69243 10.3558 3.03255 11.9954 4.20148C13.6357 3.03398 15.76 2.69398 17.7059 3.28752C21.4082 4.42083 22.7407 8.25031 21.6081 11.5954C20.9787 13.3198 19.9467 14.8829 18.591 16.1652C16.6628 17.9456 14.5372 19.5179 12.2524 20.8538L12.0049 21L11.7479 20.8538Z" stroke="#3B3943" stroke-width="1.5" stroke-linecap="round" stroke-linejoin="round"/>
</svg>

<svg width="24" height="24" fill="none" xmlns="http://www.w3.org/2000/svg"><path d="M16.24 7.053a2.781 2.781 0 0 1 1.917 2.422" stroke="#3B3943" stroke-width="1.5" stroke-linecap="round" stroke-linejoin="round"/><path clip-rule="evenodd" d="M11.748 20.854a36.496 36.496 0 0 1-6.339-4.689 11.923 11.923 0 0 1-3.017-4.57c-1.132-3.345.19-7.174 3.893-8.307a6.563 6.563 0 0 1 5.71.913 6.573 6.573 0 0 1 5.71-.913c3.703 1.133 5.036 4.962 3.903 8.307a11.922 11.922 0 0 1-3.017 4.57 36.495 36.495 0 0 1-6.339 4.689l-.247.146-.257-.146Z" stroke="#3B3943" stroke-width="1.5" stroke-linecap="round" stroke-linejoin="round"/></svg>
